assets/images/svgs/share.svg

<svg width="23" height="24" viewBox="0 0 23 24" fill="none" xmlns="http://www.w3.org/2000/svg">
<path d="M18.75 16.5C19.2656 16.5 19.75 16.5977 20.2031 16.793C20.6562 16.9883 21.0508 17.2578 21.3867 17.6016C21.7227 17.9453 21.9844 18.3438 22.1719 18.7969C22.3594 19.25 22.457 19.7344 22.4648 20.25C22.4648 20.7656 22.3711 21.25 22.1836 21.7031C21.9961 22.1562 21.7305 22.5547 21.3867 22.8984C21.043 23.2422 20.6484 23.5117 20.2031 23.707C19.7578 23.9023 19.2734 24 18.75 24C18.2344 24 17.75 23.9023 17.2969 23.707C16.8438 23.5117 16.4453 23.2461 16.1016 22.9102C15.7578 22.5742 15.4883 22.1758 15.293 21.7148C15.0977 21.2539 15 20.7656 15 20.25C15 19.8828 15.0547 19.5117 15.1641 19.1367L6.59766 14.4258C6.24609 14.8477 5.82422 15.1719 5.33203 15.3984C4.83984 15.625 4.3125 15.7422 3.75 15.75C3.23438 15.75 2.75 15.6523 2.29688 15.457C1.84375 15.2617 1.44531 14.9961 1.10156 14.6602C0.757812 14.3242 0.488281 13.9258 0.292969 13.4648C0.0976563 13.0039 0 12.5156 0 12C0 11.4844 0.0976563 11 0.292969 10.5469C0.488281 10.0938 0.753906 9.69531 1.08984 9.35156C1.42578 9.00781 1.82422 8.73828 2.28516 8.54297C2.74609 8.34766 3.23438 8.25 3.75 8.25C4.30469 8.25 4.82812 8.36328 5.32031 8.58984C5.8125 8.81641 6.23828 9.14453 6.59766 9.57422L15.1641 4.86328C15.0547 4.48828 15 4.11719 15 3.75C15 3.23438 15.0977 2.75 15.293 2.29688C15.4883 1.84375 15.7539 1.44531 16.0898 1.10156C16.4258 0.757812 16.8242 0.488281 17.2852 0.292969C17.7461 0.0976563 18.2344 0 18.75 0C19.2656 0 19.75 0.0976563 20.2031 0.292969C20.6562 0.488281 21.0508 0.757812 21.3867 1.10156C21.7227 1.44531 21.9844 1.84375 22.1719 2.29688C22.3594 2.75 22.457 3.23438 22.4648 3.75C22.4648 4.26562 22.3711 4.75 22.1836 5.20312C21.9961 5.65625 21.7305 6.05469 21.3867 6.39844C21.043 6.74219 20.6484 7.01172 20.2031 7.20703C19.7578 7.40234 19.2734 7.5 18.75 7.5C18.1953 7.5 17.6719 7.38672 17.1797 7.16016C16.6875 6.93359 16.2578 6.60547 15.8906 6.17578L7.3125 10.8984C7.36719 11.0781 7.40625 11.2578 7.42969 11.4375C7.45312 11.6172 7.46484 11.8047 7.46484 12C7.46484 12.1875 7.45312 12.3711 7.42969 12.5508C7.40625 12.7305 7.36719 12.9141 7.3125 13.1016L15.8906 17.8242C16.25 17.4023 16.6758 17.0781 17.168 16.8516C17.6602 16.625 18.1875 16.5078 18.75 16.5Z" fill="#512BD4"/>
</svg>

<svg width="23" height="24" fill="none" xmlns="http://www.w3.org/2000/svg"><path d="M18.75 16.5a3.664 3.664 0 0 1 2.637 1.102c.336.343.597.742.785 1.195.187.453.285.937.293 1.453 0 .516-.094 1-.281 1.453a3.643 3.643 0 0 1-.797 1.195 3.84 3.84 0 0 1-1.184.809c-.445.195-.93.293-1.453.293-.516 0-1-.098-1.453-.293a3.905 3.905 0 0 1-1.195-.797A3.716 3.716 0 0 1 15 20.25c0-.367.055-.738.164-1.113l-8.566-4.711a3.575 3.575 0 0 1-1.266.972 3.868 3.868 0 0 1-1.582.352c-.516 0-1-.098-1.453-.293a3.905 3.905 0 0 1-1.195-.797A3.715 3.715 0 0 1 0 12c0-.516.098-1 .293-1.453.195-.453.46-.852.797-1.195A3.716 3.716 0 0 1 3.75 8.25a3.71 3.71 0 0 1 1.57.34c.492.226.918.555 1.278.984l8.566-4.71A3.96 3.96 0 0 1 15 3.75c0-.516.098-1 .293-1.453.195-.453.46-.852.797-1.195A3.715 3.715 0 0 1 18.75 0a3.665 3.665 0 0 1 2.637 1.102c.336.343.597.742.785 1.195.187.453.285.937.293 1.453 0 .516-.094 1-.281 1.453a3.643 3.643 0 0 1-.797 1.195 3.841 3.841 0 0 1-1.184.809c-.445.195-.93.293-1.453.293a3.71 3.71 0 0 1-2.86-1.324l-8.578 4.722c.055.18.094.36.118.54a4.35 4.35 0 0 1 0 1.113c-.024.18-.063.363-.117.55l8.578 4.723c.359-.422.785-.746 1.277-.972a3.868 3.868 0 0 1 1.582-.352Z" fill="#512BD4"/></svg>
